swiss/communes/0766.svg

<?xml version="1.0" encoding="UTF-8" standalone="no"?>
<svg
   xmlns:dc="http://purl.org/dc/elements/1.1/"
   xmlns:cc="http://web.resource.org/cc/"
   xmlns:rdf="http://www.w3.org/1999/02/22-rdf-syntax-ns#"
   xmlns:svg="http://www.w3.org/2000/svg"
   xmlns="http://www.w3.org/2000/svg"
   xmlns:xlink="http://www.w3.org/1999/xlink"
   xmlns:sodipodi="http://sodipodi.sourceforge.net/DTD/sodipodi-0.dtd"
   xmlns:inkscape="http://www.inkscape.org/namespaces/inkscape"
   height="763"
   width="603"
   version="1.0"
   id="svg20"
   sodipodi:version="0.32"
   inkscape:version="0.44.1"
   sodipodi:docname="Oberwil im Simmental-coat of arms.svg"
   sodipodi:docbase="F:\MIS DOCUMENTOS\Mis imágenes\Encyclopédie\Escudos de Suiza">
  <metadata
     id="metadata31">
    <rdf:RDF>
      <cc:Work
         rdf:about="">
        <dc:format>image/svg+xml</dc:format>
        <dc:type
           rdf:resource="http://purl.org/dc/dcmitype/StillImage" />
        <dc:date>07-AUG-2006</dc:date>
        <dc:creator>
          <cc:Agent>
            <dc:title>Jérôme BLUM (wagner51)</dc:title>
          </cc:Agent>
        </dc:creator>
        <cc:license
           rdf:resource="http://creativecommons.org/licenses/GPL/2.0/" />
        <dc:coverage />
        <dc:description>Gabarit pour le Projet:Blasons de WIkipédia</dc:description>
        <dc:subject>
          <rdf:Bag>
            <rdf:li>blason suisse modèle gabarit projet blasons</rdf:li>
          </rdf:Bag>
        </dc:subject>
        <dc:language>fr</dc:language>
        <dc:title>Gabrit d'un blason suisse</dc:title>
      </cc:Work>
      <cc:License
         rdf:about="http://creativecommons.org/licenses/GPL/2.0/">
        <cc:permits
           rdf:resource="http://web.resource.org/cc/Reproduction" />
        <cc:permits
           rdf:resource="http://web.resource.org/cc/Distribution" />
        <cc:requires
           rdf:resource="http://web.resource.org/cc/Notice" />
        <cc:permits
           rdf:resource="http://web.resource.org/cc/DerivativeWorks" />
        <cc:requires
           rdf:resource="http://web.resource.org/cc/ShareAlike" />
        <cc:requires
           rdf:resource="http://web.resource.org/cc/SourceCode" />
      </cc:License>
    </rdf:RDF>
  </metadata>
  <defs
     id="defs29">
    <linearGradient
       id="linearGradient2893">
      <stop
         style="stop-color:#ffffff;stop-opacity:0.3137255;"
         offset="0"
         id="stop2895" />
      <stop
         id="stop2897"
         offset="0.19"
         style="stop-color:#ffffff;stop-opacity:0.25098041;" />
      <stop
         style="stop-color:#6b6b6b;stop-opacity:0.1254902;"
         offset="0.60000002"
         id="stop2901" />
      <stop
         style="stop-color:#000000;stop-opacity:0.1254902;"
         offset="1"
         id="stop2899" />
    </linearGradient>
    <linearGradient
       id="linearGradient2955">
      <stop
         style="stop-color:white;stop-opacity:0;"
         offset="0"
         id="stop2965" />
      <stop
         style="stop-color:black;stop-opacity:0.64583331;"
         offset="1"
         id="stop2959" />
    </linearGradient>
    <radialGradient
       inkscape:collect="always"
       xlink:href="#linearGradient2893"
       id="radialGradient3236"
       gradientUnits="userSpaceOnUse"
       gradientTransform="matrix(1.215027,1.531577e-24,1.464684e-23,1.266667,-839.1924,-490.4894)"
       cx="858.04236"
       cy="579.93323"
       fx="858.04236"
       fy="579.93323"
       r="300" />
  </defs>
  <sodipodi:namedview
     inkscape:window-height="682"
     inkscape:window-width="1024"
     inkscape:pageshadow="2"
     inkscape:pageopacity="0.0"
     guidetolerance="10.0"
     gridtolerance="10.0"
     objecttolerance="10.0"
     borderopacity="1.0"
     bordercolor="#666666"
     pagecolor="#ffffff"
     id="base"
     inkscape:zoom="0.3578463"
     inkscape:cx="355.20259"
     inkscape:cy="511.18528"
     inkscape:window-x="-4"
     inkscape:window-y="-4"
     inkscape:current-layer="layer2"
     showgrid="true" />
  <desc
     id="desc22">Coat of Arms of Canton of Freiburg (Fribourg)</desc>
  <g
     inkscape:groupmode="layer"
     id="layer1"
     inkscape:label="Fond écu"
     sodipodi:insensitive="true">
    <path
       id="path1899"
       d="M 1.5,1.49998 L 1.5,460.3679 C 1.5,626.6785 135.81456,761.5 301.49999,761.5 C 467.18543,761.5 601.5,626.6785 601.5,460.3679 L 601.5,1.49998 L 1.5,1.49998 z "
       style="fill:white;fill-opacity:1;stroke:white;stroke-opacity:1" />
    <path
       style="opacity:1;fill:#5ab532;fill-opacity:1;fill-rule:evenodd;stroke:black;stroke-width:3.00000095;stroke-linecap:round;stroke-linejoin:round;stroke-miterlimit:4;stroke-dasharray:none;stroke-opacity:1"
       d="M 1.5,384.5 L 1.5,460.375 C 1.5,626.68559 135.81461,761.5 301.5,761.5 C 467.18546,761.5 601.5,626.6856 601.5,460.375 L 601.5,384.5 L 1.5,384.5 z "
       id="rect23373" />
  </g>
  <g
     inkscape:groupmode="layer"
     id="layer2"
     inkscape:label="Meubles"
     sodipodi:insensitive="true">
    <path
       style="fill:#e20909;fill-opacity:1;fill-rule:evenodd;stroke:black;stroke-width:5.00000095;stroke-linecap:butt;stroke-linejoin:miter;stroke-miterlimit:4;stroke-dasharray:none;stroke-opacity:1"
       d="M 126.21273,340.5 L 242.2365,340.48121 L 242.90974,329.79813 L 357.24587,330.42482 L 357.5183,340.32614 L 471.70167,339.73715 L 471.69508,99.290441 C 482.94198,99.058009 488.90281,98.69295 497.50672,98.394204 L 497.50672,45.675262 L 461.22844,45.675262 L 460.59882,71.771338 L 437.60897,71.491766 L 437.60897,45.675262 L 396.21569,45.675262 L 394.75419,70.692497 L 374.05762,70.692497 L 374.78827,45.675262 L 337.77934,45.675262 L 337.77934,99.193464 L 358.01491,99.758635 L 357.33157,216.24444 C 358.78339,218.15723 344.29676,218.00018 337.77934,217.73376 L 337.77934,187.33684 L 314.1663,187.34431 L 314.57226,216.6489 C 318.1406,216.15276 294.62216,216.28929 286.36702,216.6489 L 286.14285,188.18905 L 263.68878,188.35304 L 262.99135,217.19274 L 241.06627,217.13195 L 240.06927,98.725274 L 259.30447,98.725274 L 258.57375,45.675262 L 229.3556,45.675262 L 228.31003,71.491766 L 205.25246,71.491766 L 205.25246,45.675262 L 166.53496,45.675262 L 166.53496,71.491766 C 166.53496,71.491766 142.43183,71.491766 142.43183,71.491766 L 142.43183,45.675262 L 102.5,45.675262 L 102.5,99.524533 L 125.90548,99.758635 L 126.21273,340.5 z "
       id="path2822"
       sodipodi:nodetypes="ccccccccccccccccccccccccccccccccccccccccccccc" />
    <path
       style="fill:#e20909;fill-opacity:1;fill-rule:evenodd;stroke:black;stroke-width:3.00000095;stroke-linecap:round;stroke-linejoin:round;stroke-miterlimit:4;stroke-dasharray:none;stroke-opacity:1"
       d="M 297.43725,274.45074 C 282.2831,274.45074 269.98412,282.42742 269.98411,292.25584 C 269.98411,292.9467 270.05304,293.62895 270.17129,294.29938 L 269.98411,294.29938 L 269.98411,329.9096 L 324.89038,329.9096 L 324.89038,294.29938 L 324.7032,294.29938 C 324.82147,293.62895 324.89038,292.9467 324.89038,292.25584 C 324.89038,282.42743 312.59138,274.45074 297.43725,274.45074 z "
       id="path3701" />
    <path
       sodipodi:nodetypes="cc"
       style="fill:#e20909;fill-opacity:1;fill-rule:evenodd;stroke:black;stroke-width:5.00000143;stroke-linecap:butt;stroke-linejoin:miter;stroke-miterlimit:4;stroke-dasharray:none;stroke-opacity:1"
       d="M 241.17521,180.28439 L 242.19925,339.21272"
       id="path2804" />
    <path
       sodipodi:nodetypes="cc"
       id="path3691"
       d="M 357.07823,176.69704 L 357.49542,337.59089"
       style="fill:#e20909;fill-opacity:1;fill-rule:evenodd;stroke:black;stroke-width:5.00000095;stroke-linecap:butt;stroke-linejoin:miter;stroke-miterlimit:4;stroke-dasharray:none;stroke-opacity:1" />
    <path
       id="path3693"
       d="M 239.76574,99.057454 C 118.64546,99.467759 118.64546,99.467759 118.64546,99.467759 L 118.64546,99.467759 L 118.64546,99.467759 L 239.76574,99.057454"
       style="fill:#e20909;fill-opacity:1;fill-rule:evenodd;stroke:black;stroke-width:5.00000143;stroke-linecap:butt;stroke-linejoin:miter;stroke-miterlimit:4;stroke-dasharray:none;stroke-opacity:1" />
    <path
       sodipodi:nodetypes="ccccc"
       style="fill:#e20909;fill-opacity:1;fill-rule:evenodd;stroke:black;stroke-width:5.00000143;stroke-linecap:butt;stroke-linejoin:miter;stroke-miterlimit:4;stroke-dasharray:none;stroke-opacity:1"
       d="M 478.90746,99.057454 C 357.78719,99.467759 357.78719,99.467759 357.78719,99.467759 L 357.78719,99.467759 L 357.78719,99.467759 L 478.90746,99.057454"
       id="path3695" />
    <rect
       style="fill:#e20909;fill-opacity:1;fill-rule:evenodd;stroke:black;stroke-width:3.00000215;stroke-linecap:round;stroke-linejoin:round;stroke-miterlimit:4;stroke-dasharray:none;stroke-opacity:1"
       id="rect3697"
       width="32.890259"
       height="32.235397"
       x="165.54973"
       y="141.55946" />
    <rect
       y="142.94498"
       x="397.62344"
       height="30.849764"
       width="32.890259"
       id="rect3699"
       style="fill:#e20909;fill-opacity:1;fill-rule:evenodd;stroke:black;stroke-width:3.00000191;stroke-linecap:round;stroke-linejoin:round;stroke-miterlimit:4;stroke-dasharray:none;stroke-opacity:1" />
  </g>
  <g
     inkscape:groupmode="layer"
     id="layer3"
     inkscape:label="Reflet final"
     style="display:inline"
     sodipodi:insensitive="true">
    <path
       style="fill:url(#radialGradient3236);fill-opacity:1"
       d="M 1.5,1.5 L 1.5,460.3679 C 1.5,626.67854 135.81454,761.5 301.49993,761.5 C 467.1854,761.5 601.5,626.67854 601.5,460.3679 L 601.5,1.5 L 1.5,1.5 z "
       id="path2346" />
  </g>
  <g
     inkscape:groupmode="layer"
     id="layer4"
     inkscape:label="Contour final"
     style="display:inline"
     sodipodi:insensitive="true">
    <path
       style="fill:none;fill-opacity:1;stroke:black;stroke-width:3;stroke-miterlimit:4;stroke-dasharray:none;stroke-opacity:1"
       d="M 1.5,1.5 L 1.5,460.36794 C 1.5,626.67854 135.81454,761.5 301.49993,761.5 C 467.1854,761.5 601.5,626.67854 601.5,460.36794 L 601.5,1.5 L 1.5,1.5 z "
       id="path3239" />
  </g>
</svg>

<svg xmlns="http://www.w3.org/2000/svg" xmlns:xlink="http://www.w3.org/1999/xlink" height="763" width="603" version="1.0"><defs><radialGradient xlink:href="#a" id="b" gradientUnits="userSpaceOnUse" gradientTransform="matrix(1.21503 0 0 1.26667 -839.192 -490.49)" cx="858.042" cy="579.933" fx="858.042" fy="579.933" r="300"/><linearGradient id="a"><stop style="stop-color:#fff;stop-opacity:.3137255" offset="0"/><stop offset=".19" style="stop-color:#fff;stop-opacity:.25098041"/><stop style="stop-color:#6b6b6b;stop-opacity:.1254902" offset=".6"/><stop style="stop-color:#000;stop-opacity:.1254902" offset="1"/></linearGradient></defs><path d="M1.5 1.5v458.868c0 166.31 134.315 301.132 300 301.132s300-134.822 300-301.132V1.5H1.5z" style="fill:#fff;fill-opacity:1;stroke:#fff;stroke-opacity:1"/><path style="opacity:1;fill:#5ab532;fill-opacity:1;fill-rule:evenodd;stroke:#000;stroke-width:3.00000095;stroke-linecap:round;stroke-linejoin:round;stroke-miterlimit:4;stroke-dasharray:none;stroke-opacity:1" d="M1.5 384.5v75.875c0 166.31 134.315 301.125 300 301.125s300-134.814 300-301.125V384.5H1.5z"/><path style="fill:#e20909;fill-opacity:1;fill-rule:evenodd;stroke:#000;stroke-width:5.00000095;stroke-linecap:butt;stroke-linejoin:miter;stroke-miterlimit:4;stroke-dasharray:none;stroke-opacity:1" d="m126.213 340.5 116.024-.019.673-10.683 114.336.627.272 9.901 114.184-.589-.007-240.447c11.247-.232 17.208-.597 25.812-.896V45.675h-36.279l-.63 26.096-22.989-.28V45.676h-41.393l-1.462 25.017h-20.696l.73-25.017H337.78v53.518l20.236.566-.683 116.485c1.451 1.913-13.035 1.756-19.553 1.49v-30.397l-23.613.007.406 29.305c3.569-.496-19.95-.36-28.205 0l-.224-28.46-22.454.164-.698 28.84-21.925-.061-.997-118.407h19.235l-.73-53.05h-29.218l-1.046 25.817h-23.058V45.675h-38.717v25.817h-24.103V45.675H102.5v53.85l23.405.234.308 240.741z"/><path style="fill:#e20909;fill-opacity:1;fill-rule:evenodd;stroke:#000;stroke-width:3.00000095;stroke-linecap:round;stroke-linejoin:round;stroke-miterlimit:4;stroke-dasharray:none;stroke-opacity:1" d="M297.437 274.45c-15.154 0-27.453 7.977-27.453 17.806 0 .69.069 1.373.187 2.043h-.187v35.61h54.906V294.3h-.187c.118-.67.187-1.352.187-2.043 0-9.829-12.299-17.805-27.453-17.805z"/><path style="fill:#e20909;fill-opacity:1;fill-rule:evenodd;stroke:#000;stroke-width:5.00000143;stroke-linecap:butt;stroke-linejoin:miter;stroke-miterlimit:4;stroke-dasharray:none;stroke-opacity:1" d="m241.175 180.284 1.024 158.929"/><path d="m357.078 176.697.417 160.894" style="fill:#e20909;fill-opacity:1;fill-rule:evenodd;stroke:#000;stroke-width:5.00000095;stroke-linecap:butt;stroke-linejoin:miter;stroke-miterlimit:4;stroke-dasharray:none;stroke-opacity:1"/><path d="m239.766 99.057-121.12.41 121.12-.41M478.907 99.057l-121.12.41 121.12-.41" style="fill:#e20909;fill-opacity:1;fill-rule:evenodd;stroke:#000;stroke-width:5.00000143;stroke-linecap:butt;stroke-linejoin:miter;stroke-miterlimit:4;stroke-dasharray:none;stroke-opacity:1"/><path style="fill:#e20909;fill-opacity:1;fill-rule:evenodd;stroke:#000;stroke-width:3.00000215;stroke-linecap:round;stroke-linejoin:round;stroke-miterlimit:4;stroke-dasharray:none;stroke-opacity:1" d="M165.55 141.559h32.89v32.235h-32.89z"/><path style="fill:#e20909;fill-opacity:1;fill-rule:evenodd;stroke:#000;stroke-width:3.00000191;stroke-linecap:round;stroke-linejoin:round;stroke-miterlimit:4;stroke-dasharray:none;stroke-opacity:1" d="M397.623 142.945h32.89v30.85h-32.89z"/><g style="display:inline"><path style="fill:url(#b);fill-opacity:1" d="M1.5 1.5v458.868c0 166.31 134.315 301.132 300 301.132s300-134.821 300-301.132V1.5H1.5z"/></g><g style="display:inline"><path style="fill:none;fill-opacity:1;stroke:#000;stroke-width:3;stroke-miterlimit:4;stroke-dasharray:none;stroke-opacity:1" d="M1.5 1.5v458.868c0 166.31 134.315 301.132 300 301.132s300-134.821 300-301.132V1.5H1.5z"/></g></svg>
